X: 34132
T: Reel Du Gaucher
R: reel
M: 4/4
K: Amixolydian
egag efed|cdef g2(3fgf|egag efed|(3cdc (3BcB A3 e|
egag efed|cdef g2(3fgf|eaae (3fgf ed|cABG A3 A||
AAcA B2AG|FGAd BGGA|BdcA (3BcB AG|FGAB A[EA][E2A2]|
AAcA B2AG|FGAd BGGA|BdcA (3BcB AG|FGAB [E3A3] e||

